packages/core/src/svgs/tokens/branded/XKI.svg

<svg width="24" height="24" viewBox="0 0 24 24" fill="none" xmlns="http://www.w3.org/2000/svg">
<path d="M8.77428 2H4.90332V16.8388H8.77428V10.2452L14.5807 16.8388H19.0968L12.6452 9.41938L18.4517 2H13.9356L8.77428 8.59353V2Z" fill="#2A00FF"/>
<path d="M6.8388 22C7.90778 22 8.77427 21.1335 8.77427 20.0646C8.77427 18.9956 7.90778 18.1291 6.8388 18.1291C5.76986 18.1291 4.90332 18.9956 4.90332 20.0646C4.90332 21.1335 5.76986 22 6.8388 22Z" fill="#2A00FF"/>
</svg>

<svg xmlns="http://www.w3.org/2000/svg" width="24" height="24" fill="none" viewBox="0 0 24 24">
    <path fill="#2A00FF" d="M8.774 2h-3.87v14.839h3.87v-6.594l5.807 6.594h4.516l-6.452-7.42L18.452 2h-4.516L8.774 8.594zM6.839 22a1.935 1.935 0 1 0 0-3.87 1.935 1.935 0 0 0 0 3.87"/>
</svg>
